src/topics/icons/get-satisfaction.svg

<svg height="122" preserveAspectRatio="xMidYMid" viewBox="0 0 512 122" width="512" xmlns="http://www.w3.org/2000/svg"><path d="m337.428761 109.815867c-5.698262 0-6.905622-5.350734-6.905622-12.0825919 0-7.2501541 1.983307-11.9058315 7.070398-11.9058315 3.193663 0 5.527494 1.2912464 6.992504 6.902626l14.326544-4.4909012c-2.675367-7.7654543-7.507804-14.6680803-21.145284-14.6680803-10.183171 0-24.335951 4.8354333-24.335951 24.0783009 0 18.991209 12.858538 23.991419 23.730773 23.991419 13.37983 0 19.248859-7.59169 21.92123-14.497312l-14.15278-4.748552c-1.548896 6.039798-4.742559 7.420923-7.501812 7.420923zm41.122155-49.1692271h-16.642399v46.0924051c0 9.011762 1.482986 14.560227 17.247577 14.560227 3.37941 0 9.380261-.53028 10.491752-.784934v-11.953767c-1.111491.25765-3.295525.518296-4.769523.518296-4.853409 0-6.327407-1.210356-6.327407-6.153643v-16.7592402h11.09693v-12.2054246h-11.09693zm-85.428985 44.8700651c-1.108495 1.432055-3.903699 2.777228-8.295734 2.777228-2.237961 0-4.008556-1.081531-4.008556-3.415361 0-3.667021 3.427345-5.9079773 12.301294-6.1746152v6.8127482zm16.642399-13.5356183c0-13.5326222-5.188953-20.1596226-19.347725-20.1596226-9.053705 0-15.243299 2.1630625-19.776143 4.8174578l5.135026 11.8908518c3.565158-2.052213 7.696548-3.5351991 12.130526-3.5351991 4.122402 0 5.215917 1.6986931 5.215917 4.0295278v.6261497c-19.973875.8957835-29.530896 7.4388977-29.530896 18.1912959 0 9.41022 6.872667 13.6225 13.775293 13.6225 7.082381 0 12.040648-2.870102 15.983294-7.801406 0 2.693343.476353 4.682641 1.108494 6.899631h17.556159c-.982666-2.21699-2.249945-5.725225-2.249945-11.459438zm-42.164739-18.0175316h-9.982443v-.566231c0-4.9163235 2.750265-5.0900875 5.770164-5.0900875 1.468006 0 3.103785.2576501 4.212279.5182961v-11.6481814c-1.108494-.2576501-7.136309-.7759462-10.50074-.7759462-15.704672 0-17.238589 8.6282825-17.238589 16.3068547v47.8570082h17.756886v-34.3992842h9.982443zm126.488225-4.4369744h16.642399v-8.8769449h-16.642399zm-175.250005 21.6515964c-4.658673-.6051782-7.073394-1.3841203-7.073394-3.538195 0-2.0731846 1.896425-2.9360128 4.745555-2.9360128 3.708964 0 8.628283 1.7286524 13.634484 4.6586734l6.300444-9.4042288c-5.608383-4.0564912-11.480409-6.3873258-21.576698-6.3873258-10.440821 0-18.898335 5.2638515-18.898335 15.6177905 0 11.9987054 11.132881 13.8082484 18.985217 14.9377144 5.003206.683072 7.166268 1.46501 7.166268 3.879731 0 2.157071-2.591481 3.022895-5.524498 3.022895-5.266847 0-12.253359-2.160067-16.570496-5.61138l-6.300444 9.577993c5.090087 3.708963 12.169473 6.644976 22.957823 6.644976 10.701467 0 21.226174-4.224263 21.226174-16.486611 0-11.2167671-11.216768-12.9424236-19.0721-13.9760199zm279.475464-17.607089c-8.544397 0-13.242017 4.8354333-15.462003 8.0290962v-7.6366292h-16.642399v46.6017129h16.642399v-29.731623c3.32848-1.8155345 5.06612-3.277549 8.002133-3.277549 2.852127 0 4.203292 1.8065467 4.203292 5.0032055v28.0059665h16.642399v-33.620342c0-9.9225249-6.138663-13.3738379-13.385821-13.3738379zm-59.205597 36.2447789c-5.952916 0-7.591691-5.350734-7.591691-12.0825919 0-7.2501541 1.986303-11.9058315 7.591691-11.9058315 5.872025 0 7.59169 5.1799654 7.59169 11.9058315.002996 7.3340399-1.980311 12.0825919-7.59169 12.0825919zm0-36.2447789c-11.213772 0-24.677488 4.8354333-24.677488 24.0783009 0 18.991209 13.544606 23.991419 24.677488 23.991419 11.135877 0 24.683479-5.00021 24.683479-23.991419.002996-19.2458635-13.547602-24.0783009-24.683479-24.0783009zm-45.019862 46.9911849h16.642399v-46.5987179h-16.642399zm-272.944333-15.045568c-2.216989 1.432055-4.00556 2.777228-8.397596 2.777228-2.23796 0-3.960621-1.081531-3.960621-3.415361 0-3.667021 3.481272-5.9079773 12.358217-6.1746152zm16.642399-13.5356183c0-13.5326222-5.290815-20.1596226-19.449587-20.1596226-12.903476 0-20.2584878 4.3920355-24.6445314 8.3316853l7.3430274 10.0393663c4.029528-2.8730983 9.245445-5.1979411 14.802898-5.1979411 4.116409 0 5.305794 1.6986931 5.305794 4.0295278v.6261497c-19.970879.8957835-29.6387494 7.4388977-29.6387494 18.1912959 0 9.41022 6.8247318 13.6225 13.7243614 13.6225 7.082382 0 12.019677-2.870102 15.959327-7.801406 0 2.693343.452386 4.682641 1.081531 6.899631h17.56215c-.988657-2.21699-2.046221-5.725225-2.046221-11.459438zm21.08237-31.3344468h-16.642399v46.0924051c0 9.011762 1.47999 14.560227 17.244581 14.560227 3.379411 0 9.383257-.53028 10.491752-.784934v-11.953767c-1.108495.25765-3.295525.518296-4.766527.518296-4.853409 0-6.327407-1.210356-6.327407-6.153643v-16.7592402h11.093934v-12.2054246h-11.093934zm-87.9335836 30.5315372c-4.6616693-.6051782-7.0793859-1.3841203-7.0793859-3.538195 0-2.0731846 1.8994205-2.9360128 4.7455554-2.9360128 3.7089631 0 8.6282825 1.7286524 13.6374798 4.6586734l6.2944519-9.4042288c-5.6053877-4.0564912-11.4744173-6.3873258-21.5707062-6.3873258-10.4408211 0-18.9013314 5.2638515-18.9013314 15.6177905 0 11.9987054 11.1358771 13.8082484 18.9882134 14.9377144 5.0062014.683072 7.163272 1.46501 7.163272 3.879731 0 2.157071-2.5914807 3.022895-5.5215016 3.022895-5.2668475 0-12.2563555-2.160067-16.5704967-5.61138l-6.3004438 9.577993c5.0900875 3.708963 12.1694734 6.644976 22.9548266 6.644976 10.6984711 0 21.2291701-4.224263 21.2291701-16.486611 0-11.2167671-11.2167673-12.9424236-19.0691036-13.9760199zm103.4674876-21.6515964h16.642399v-8.8769449h-16.642399zm0 51.0356923h16.642399v-46.5987179h-16.642399z" fill="#792980"/><path d="m89.9528411 33.7192082-3.8258044.8118974-1.2343237 12.5259893c-.3984589 4.0864505-.002996 4.8743805 2.3637899 4.3770559.8628282-.1827519 1.7556158-.5931945 2.4177166-1.0695476l.5123043 5.4495993c-2.4596597 1.6897053-4.8833682 2.7023302-6.7678091 3.0977931-5.8630378 1.2463075-8.9398594.4703612-8.3226975-5.7192331l1.6237948-16.6693625-2.1181235.4463938.6710886-6.4172851 2.1031439-.482345.6381334-6.5251386 9.5360497-3.4842683-.784934 8.0051288 5.06612-1.0815312zm-32.6556525 20.4202686c.2576501 2.7203058 1.351165 3.280545 4.2122796 2.7083221 2.3757736-.482345 5.3417457-2.2439527 7.5617309-4.3590803l2.3967451 5.5724325c-4.1883121 3.3973862-8.2507951 5.2159166-11.1119096 5.7911354-7.9871532 1.6058193-11.9058315-.8778079-12.5769202-8.0171125-.9766736-10.3569349 4.2272593-20.4592157 14.5332634-22.5353962 5.8300825-1.1714092 10.7374182.1198373 11.2796818 5.8929971.4943287 5.2338923-3.8617556 10.9411416-12.9813709 12.7746517-1.5638762.3205646-2.8701023.4733571-3.3135001.4493897-.0539268.566231-.0239675 1.4530267 0 1.7226605zm-13.1221797 13.3738379c-.2576501 2.8101837-.5332758 4.9642584-1.0395882 6.0577734-2.1091357 4.6227222-6.9954999 7.4838367-13.4247687 8.7780791-4.1493651.8328689-8.2448033.4943287-10.267057-.5392677l2.5735051-6.507163c1.3901122.7699543 3.7898532 1.177401 7.6186536.4014548 2.9629762-.5961904 4.9342991-2.9899396 5.1380224-5.5244976.0748983-.9047713.1557884-1.8095426.4733572-2.5375539-.9886574 1.1983726-2.5405499 2.1750462-5.0211811 2.6753668-5.3387498 1.0725434-8.3975958-1.0845272-9.08666-8.3766243-.5362718-5.7162372.7939218-20.1326592 15.1324496-23.0207371 3.7718777-.7549747 7.2231907-1.1654173 10.7883491-.6621009 0 0-2.5974726 26.1604733-2.885082 29.2552704zm73.5051781-16.77422-12.636839-7.9332264 5.185957-13.9939958-14.7070273-2.4956108-.5602392-14.9107508-14.5452471 3.322488-6.2285414-13.55958564-12.1664776 8.64026624-10.9381456-9.8086795-7.9332264 12.2953026-13.9909998-5.18895325-2.4986068 14.70702735-14.9107507.5632351 3.3224879 14.5482431-13.56258156 6.2195536 8.64026626 12.1694735-10.1502157 10.9381456 12.6338428 7.9332264-5.18595727 13.9939957 14.71002327 2.492615.5632352 14.9167423 14.545247-3.325484 5.6563186 10.395882 7.0164714-10.671507c-3.2595734-2.7023305-5.5844162-6.7168786-5.5844162-12.7956234 0-11.5583035 9.08666-19.3207618 22.6072986-19.3207618 9.9075452 0 16.7891997 2.052213 23.7457525 7.0853778l.653113.4733572.0269634-.0269634c6.3963136-5.7491924 14.8238687-8.8499815 25.0699537-9.2424485l-8.924879-6.4772037zm-82.7326469-4.284182c-3.3943903.6830724-4.7934903 9.1226112-4.4189988 13.0952163.2726297 2.8880779 1.0335963 3.3973862 2.5974725 3.0798175.916755-.1827518 1.9773147-1.7286524 2.2080015-2.2169892l1.5998274-13.8591788c-.1917397-.2936013-1.1234743-.2726298-1.9863026-.0988658zm25.2347304-.7819381c2.1031439-.4254222 4.3201332-1.9833066 4.1313895-3.9995684-.1198373-1.2552953-.9407225-1.8125385-2.2888916-1.5369129-2.3757737.4763531-3.4902601 2.6424116-3.8108248 5.6533227.2786216.0539267.9437184.083886 1.9683269-.1168414z" fill="#f47d30"/></svg>

<?xml version="1.0" encoding="UTF-8" standalone="no"?>
<svg width="512px" height="122px" viewBox="0 0 512 122" version="1.1" xmlns="http://www.w3.org/2000/svg" xmlns:xlink="http://www.w3.org/1999/xlink" preserveAspectRatio="xMidYMid">
	<g>
		<path d="M337.428761,109.815867 C331.730499,109.815867 330.523139,104.465133 330.523139,97.7332751 C330.523139,90.483121 332.506446,85.8274436 337.593537,85.8274436 C340.7872,85.8274436 343.121031,87.11869 344.586041,92.7300696 L358.912585,88.2391684 C356.237218,80.4737141 351.404781,73.5710881 337.767301,73.5710881 C327.58413,73.5710881 313.43135,78.4065214 313.43135,97.649389 C313.43135,116.640598 326.289888,121.640808 337.162123,121.640808 C350.541953,121.640808 356.410982,114.049118 359.083353,107.143496 L344.930573,102.394944 C343.381677,108.434742 340.188014,109.815867 337.428761,109.815867 L337.428761,109.815867 Z M378.550916,60.6466399 L361.908517,60.6466399 L361.908517,106.739045 C361.908517,115.750807 363.391503,121.299272 379.156094,121.299272 C382.535504,121.299272 388.536355,120.768992 389.647846,120.514338 L389.647846,108.560571 C388.536355,108.818221 386.352321,109.078867 384.878323,109.078867 C380.024914,109.078867 378.550916,107.868511 378.550916,102.925224 L378.550916,86.1659838 L389.647846,86.1659838 L389.647846,73.9605592 L378.550916,73.9605592 L378.550916,60.6466399 L378.550916,60.6466399 Z M293.121931,105.516705 C292.013436,106.94876 289.218232,108.293933 284.826197,108.293933 C282.588236,108.293933 280.817641,107.212402 280.817641,104.878572 C280.817641,101.211551 284.244986,98.9705947 293.118935,98.7039568 L293.118935,105.516705 L293.121931,105.516705 Z M309.76433,91.9810867 C309.76433,78.4484645 304.575377,71.8214641 290.416605,71.8214641 C281.3629,71.8214641 275.173306,73.9845266 270.640462,76.6389219 L275.775488,88.5297737 C279.340646,86.4775607 283.472036,84.9945746 287.906014,84.9945746 C292.028416,84.9945746 293.121931,86.6932677 293.121931,89.0241024 L293.121931,89.6502521 C273.148056,90.5460356 263.591035,97.0891498 263.591035,107.841548 C263.591035,117.251768 270.463702,121.464048 277.366328,121.464048 C284.448709,121.464048 289.406976,118.593946 293.349622,113.662642 C293.349622,116.355985 293.825975,118.345283 294.458116,120.562273 L312.014275,120.562273 C311.031609,118.345283 309.76433,114.837048 309.76433,109.102835 L309.76433,91.9810867 L309.76433,91.9810867 Z M267.599591,73.9635551 L257.617148,73.9635551 L257.617148,73.3973241 C257.617148,68.4810006 260.367413,68.3072366 263.387312,68.3072366 C264.855318,68.3072366 266.491097,68.5648867 267.599591,68.8255327 L267.599591,57.1773513 C266.491097,56.9197012 260.463282,56.4014051 257.098851,56.4014051 C241.394179,56.4014051 239.860262,65.0296876 239.860262,72.7082598 L239.860262,120.565268 L257.617148,120.565268 L257.617148,86.1659838 L267.599591,86.1659838 L267.599591,73.9635551 L267.599591,73.9635551 Z M394.087816,69.5265807 L410.730215,69.5265807 L410.730215,60.6496358 L394.087816,60.6496358 L394.087816,69.5265807 L394.087816,69.5265807 Z M218.837811,91.1781771 C214.179138,90.5729989 211.764417,89.7940568 211.764417,87.6399821 C211.764417,85.5667975 213.660842,84.7039693 216.509972,84.7039693 C220.218936,84.7039693 225.138255,86.4326217 230.144456,89.3626427 L236.4449,79.9584139 C230.836517,75.9019227 224.964491,73.5710881 214.868202,73.5710881 C204.427381,73.5710881 195.969867,78.8349396 195.969867,89.1888786 C195.969867,101.187584 207.102748,102.997127 214.955084,104.126593 C219.95829,104.809665 222.121352,105.591603 222.121352,108.006324 C222.121352,110.163395 219.529871,111.029219 216.596854,111.029219 C211.330007,111.029219 204.343495,108.869152 200.026358,105.417839 L193.725914,114.995832 C198.816001,118.704795 205.895387,121.640808 216.683737,121.640808 C227.385204,121.640808 237.909911,117.416545 237.909911,105.154197 C237.909911,93.9374299 226.693143,92.2117734 218.837811,91.1781771 L218.837811,91.1781771 Z M498.313275,73.5710881 C489.768878,73.5710881 485.071258,78.4065214 482.851272,81.6001843 L482.851272,73.9635551 L466.208873,73.9635551 L466.208873,120.565268 L482.851272,120.565268 L482.851272,90.833645 C486.179752,89.0181105 487.917392,87.556096 490.853405,87.556096 C493.705532,87.556096 495.056697,89.3626427 495.056697,92.5593015 L495.056697,120.565268 L511.699096,120.565268 L511.699096,86.944926 C511.699096,77.0224011 505.560433,73.5710881 498.313275,73.5710881 L498.313275,73.5710881 Z M439.107678,109.815867 C433.154762,109.815867 431.515987,104.465133 431.515987,97.7332751 C431.515987,90.483121 433.50229,85.8274436 439.107678,85.8274436 C444.979703,85.8274436 446.699368,91.007409 446.699368,97.7332751 C446.702364,105.067315 444.719057,109.815867 439.107678,109.815867 L439.107678,109.815867 Z M439.107678,73.5710881 C427.893906,73.5710881 414.43019,78.4065214 414.43019,97.649389 C414.43019,116.640598 427.974796,121.640808 439.107678,121.640808 C450.243555,121.640808 463.791157,116.640598 463.791157,97.649389 C463.794153,78.4035255 450.243555,73.5710881 439.107678,73.5710881 L439.107678,73.5710881 Z M394.087816,120.562273 L410.730215,120.562273 L410.730215,73.9635551 L394.087816,73.9635551 L394.087816,120.562273 L394.087816,120.562273 Z M121.143483,105.516705 C118.926494,106.94876 117.137923,108.293933 112.745887,108.293933 C110.507927,108.293933 108.785266,107.212402 108.785266,104.878572 C108.785266,101.211551 112.266538,98.9705947 121.143483,98.7039568 L121.143483,105.516705 L121.143483,105.516705 Z M137.785882,91.9810867 C137.785882,78.4484645 132.495067,71.8214641 118.336295,71.8214641 C105.432819,71.8214641 98.0778072,76.2134996 93.6917636,80.1531494 L101.034791,90.1925157 C105.064319,87.3194174 110.280236,84.9945746 115.837689,84.9945746 C119.954098,84.9945746 121.143483,86.6932677 121.143483,89.0241024 L121.143483,89.6502521 C101.172604,90.5460356 91.5047336,97.0891498 91.5047336,107.841548 C91.5047336,117.251768 98.3294654,121.464048 105.229095,121.464048 C112.311477,121.464048 117.248772,118.593946 121.188422,113.662642 C121.188422,116.355985 121.640808,118.345283 122.269953,120.562273 L139.832103,120.562273 C138.843446,118.345283 137.785882,114.837048 137.785882,109.102835 L137.785882,91.9810867 L137.785882,91.9810867 Z M158.868252,60.6466399 L142.225853,60.6466399 L142.225853,106.739045 C142.225853,115.750807 143.705843,121.299272 159.470434,121.299272 C162.849845,121.299272 168.853691,120.768992 169.962186,120.514338 L169.962186,108.560571 C168.853691,108.818221 166.666661,109.078867 165.195659,109.078867 C160.34225,109.078867 158.868252,107.868511 158.868252,102.925224 L158.868252,86.1659838 L169.962186,86.1659838 L169.962186,73.9605592 L158.868252,73.9605592 L158.868252,60.6466399 L158.868252,60.6466399 Z M70.9346684,91.1781771 C66.2729991,90.5729989 63.8552825,89.7940568 63.8552825,87.6399821 C63.8552825,85.5667975 65.754703,84.7039693 68.6008379,84.7039693 C72.309801,84.7039693 77.2291204,86.4326217 82.2383177,89.3626427 L88.5327696,79.9584139 C82.9273819,75.9019227 77.0583523,73.5710881 66.9620634,73.5710881 C56.5212423,73.5710881 48.060732,78.8349396 48.060732,89.1888786 C48.060732,101.187584 59.1966091,102.997127 67.0489454,104.126593 C72.0551468,104.809665 74.2122174,105.591603 74.2122174,108.006324 C74.2122174,110.163395 71.6207367,111.029219 68.6907158,111.029219 C63.4238683,111.029219 56.4343603,108.869152 52.1202191,105.417839 L45.8197753,114.995832 C50.9098628,118.704795 57.9892487,121.640808 68.7746019,121.640808 C79.473073,121.640808 90.003772,117.416545 90.003772,105.154197 C90.003772,93.9374299 78.7870047,92.2117734 70.9346684,91.1781771 L70.9346684,91.1781771 Z M174.402156,69.5265807 L191.044555,69.5265807 L191.044555,60.6496358 L174.402156,60.6496358 L174.402156,69.5265807 L174.402156,69.5265807 Z M174.402156,120.562273 L191.044555,120.562273 L191.044555,73.9635551 L174.402156,73.9635551 L174.402156,120.562273 L174.402156,120.562273 Z" fill="#792980"></path>
		<path d="M89.9528411,33.7192082 L86.1270367,34.5311056 L84.892713,47.0570949 C84.4942541,51.1435454 84.889717,51.9314754 87.2565029,51.4341508 C88.1193311,51.2513989 89.0121187,50.8409563 89.6742195,50.3646032 L90.1865238,55.8142025 C87.7268641,57.5039078 85.3031556,58.5165327 83.4187147,58.9119956 C77.5556769,60.1583031 74.4788553,59.3823568 75.0960172,53.1927625 L76.719812,36.5234 L74.6016885,36.9697938 L75.2727771,30.5525087 L77.375921,30.0701637 L78.0140544,23.5450251 L87.5501041,20.0607568 L86.7651701,28.0658856 L91.8312901,26.9843544 L89.9528411,33.7192082 L89.9528411,33.7192082 Z M57.2971886,54.1394768 C57.5548387,56.8597826 58.6483536,57.4200218 61.5094682,56.8477989 C63.8852418,56.3654539 66.8512139,54.6038462 69.0711991,52.4887186 L71.4679442,58.0611511 C67.2796321,61.4585373 63.2171491,63.2770677 60.3560346,63.8522865 C52.3688814,65.4581058 48.4502031,62.9744786 47.7791144,55.835174 C46.8024408,45.4782391 52.0063737,35.3759583 62.3123778,33.2997778 C68.1424603,32.1283686 73.049796,33.4196151 73.5920596,39.1927749 C74.0863883,44.4266672 69.730304,50.1339165 60.6106887,51.9674266 C59.0468125,52.2879912 57.7405864,52.4407837 57.2971886,52.4168163 C57.2432618,52.9830473 57.2732211,53.869843 57.2971886,54.1394768 L57.2971886,54.1394768 Z M44.1750089,67.5133147 C43.9173588,70.3234984 43.6417331,72.4775731 43.1354207,73.5710881 C41.026285,78.1938103 36.1399208,81.0549248 29.710652,82.3491672 C25.5612869,83.1820361 21.4658487,82.8434959 19.443595,81.8098995 L22.0171001,75.3027365 C23.4072123,76.0726908 25.8069533,76.4801375 29.6357537,75.7041913 C32.5987299,75.1080009 34.5700528,72.7142517 34.7737761,70.1796937 C34.8486744,69.2749224 34.9295645,68.3701511 35.2471333,67.6421398 C34.2584759,68.8405124 32.7065834,69.817186 30.2259522,70.3175066 C24.8872024,71.39005 21.8283564,69.2329794 21.1392922,61.9408823 C20.6030204,56.2246451 21.933214,41.8082231 36.2717418,38.9201452 C40.0436195,38.1651705 43.4949325,37.7547279 47.0600909,38.2580443 C47.0600909,38.2580443 44.4626183,64.4185176 44.1750089,67.5133147 L44.1750089,67.5133147 Z M117.680187,50.7390947 L105.043348,42.8058683 L110.229305,28.8118725 L95.5222777,26.3162617 L94.9620385,11.4055109 L80.4167914,14.7279989 L74.18825,1.16841326 L62.0217724,9.8086795 L51.0836268,0 L43.1504004,12.2953026 L29.1594006,7.10634935 L26.6607938,21.8133767 L11.7500431,22.3766118 L15.072531,36.9248549 L1.50994944,43.1444085 L10.1502157,55.313882 L0,66.2520276 L12.6338428,74.185254 L7.44788553,88.1792497 L22.1579088,90.6718647 L22.721144,105.588607 L37.266391,102.263123 L42.9227096,112.659005 L49.939181,101.987498 C46.6796076,99.2851675 44.3547648,95.2706194 44.3547648,89.1918746 C44.3547648,77.6335711 53.4414248,69.8711128 66.9620634,69.8711128 C76.8696086,69.8711128 83.7512631,71.9233258 90.7078159,76.9564906 L91.3609289,77.4298478 L91.3878923,77.4028844 C97.7842059,71.653692 106.211761,68.5529029 116.457846,68.1604359 L107.532967,61.6832322 L117.680187,50.7390947 L117.680187,50.7390947 Z M34.9475401,46.4549127 C31.5531498,47.1379851 30.1540498,55.5775239 30.5285413,59.550129 C30.801171,62.4382069 31.5621376,62.9475152 33.1260138,62.6299465 C34.0427688,62.4471947 35.1033285,60.9012941 35.3340153,60.4129573 L36.9338427,46.5537785 C36.742103,46.2601772 35.8103684,46.2811487 34.9475401,46.4549127 L34.9475401,46.4549127 Z M60.1822705,45.6729746 C62.2854144,45.2475524 64.5024037,43.689668 64.31366,41.6734062 C64.1938227,40.4181109 63.3729375,39.8608677 62.0247684,40.1364933 C59.6489947,40.6128464 58.5345083,42.7789049 58.2139436,45.789816 C58.4925652,45.8437427 59.157662,45.873702 60.1822705,45.6729746 L60.1822705,45.6729746 Z" fill="#F47D30"></path>
	</g>
</svg>
